X:118
T:Violon gu\'erisseur
C:Pascale Gemme
Z:robin.beech@mcgill.ca
M:6/8
L:1/8
K:Dmaj
DAA |: F2D EDC | B,CA, B,CD | EGG F2D | DAA F2D |
EDC B,CA, | B,CD FGE |1 D3- DAA :|2 D3 ABc |:
d3 dcB | ABA F2D | B3 BAG | E3 EFG |
F3 FGA | Adc B2A | fdf gec  | BGA- Adc |
d3 dcB | ABA F2D | B3 BAG | E3 EFG |
F3 FGA | AGF FED | B,CD FEC | D3 DED |:
B,3 G3 | FCD E2D | B,CD FEC | DED C2A, |
B,3 G3 | FCD E2D | B,CD FEC |1 DED DED :|2 DED DAA |]

